X: 1
T:The piper's picnic
C:anon., arr.: Frank Nordberg
O:Ireland
V:1 up
V:2 down merge
R:Double jig
B:O'Neills's 1001
Z:(C) 1999 Arranged by Frank Nordberg - http://www.musicaviva.com
M:6/8
L:1/8
K:A -8va
V:1
E|AcA BGE|cde dBG|AcA BGE|{F}EDE GAB|
V:2
x|A,3 E,3|A,3 E,3|A,3 E,3|E,3 E,3|
V:1
AcA BGE|cde dBG|{d}cBA BGE|EFG A2::(A/B/)|
V:2
A,3 E,3|A,3 E,3|A,3 E,3|E,3 A,2 ::x|
V:1
ceA ceA|cee edc|(B/c/d)G (B/c/d)G|Bdd dcB|
V:2
A,3A,3|A,6|E,3E,3|E,6|
V:1
cde dcB|{d}cBA Ggf|ecA GED|EFGA2:|
V:2
A,3 E,3|A,3 E,3|A,3 E,3|E,3 A,2:|
